X:172
T:Dainty Davy was a Lad
R:Strathspey
S:Joyce - Old Irish Folk Music
M:C
L:1/8
K:G
d>cBA GEE>D|GBBd GBB>d|d>cBA GEE>D|GBBd GBB>f|gefd e2d2||
gbef gbba/g/|fbd>e faa g/f/|gbbg faaf|gefd e2e2||

